X: 371
T: Drops of Whiskey
%R: jig
Z: 2014 John Chambers <jc:trillian.mit.edu>
B: Preston "Twenty four Country Dances for the Year 1799" p.166 #1
F: http://www.vwml.org/browse/browse-collections-dance-tune-books/browse-prestons1799# 2014-8-10
P: All.o assai
M: 6/8
L: 1/8
K: C
|:\
!f!cec GEC | Add d2d | !p!cec GEC | ecc c2c |\
!f!cec GEC | Add d2d | !p!cec GEC | ecc c2z :|
|:\
!f!gec dBG | gec dBG | !p!agf edc | BGG G2G |\
!f!cdc cAA | !p!ded Hd2 (e/f/) | !f!gec AdB | ecc c2z :|
% - - - - - - - - - - - - - - - - - - - - - - - - -
%%begintext align
%% 1st Cu: cast down one Cu: & set, lead up the
%% middle, cast of one Cu: 1st & 2d Cu: change sides
%% and set, and back again and set
%%endtext
% - - - - - - - - - - - - - - - - - - - - - - - - -

%%sep 1 1 500
%%sep 1 1 500
